X: 41522
T: Uncle Bernard's
R: polka
M: 2/4
K: Gmajor
|:A2|GA Bc|d3/2e/ d/c/ B|c3/2d/ c/B/ A|B3/2c/ B A|
GA Bc|d3/2e/ dg|f/e/ d/c/ B A|G2:|
|:Bd|gg fe|d3/2e/ d/c/ B|c3/2d/ c/B/ A|B3/2c/ B d|
gg fe|d3/2e/ dg|f/e/ d/c/ B A|G2:|

